assets/visa.svg

<svg fill="none" height="22" viewBox="0 0 65 22" width="65" xmlns="http://www.w3.org/2000/svg" xmlns:xlink="http://www.w3.org/1999/xlink"><clipPath id="a"><path d="m.675781.890625h64v20.6933h-64z"/></clipPath><g clip-path="url(#a)"><path d="m42.3746.890625c-4.5383 0-8.613 2.361475-8.613 6.694905 0 4.99077 7.1978 5.33157 7.1978 7.81477 0 1.0468-1.2199 1.9963-3.2695 1.9963-2.928 0-5.1239-1.3146-5.1239-1.3146l-.9272 4.3821s2.5132 1.1199 5.8803 1.1199c4.9775 0 8.8814-2.4589 8.8814-6.8897 0-5.25855-7.2222-5.59938-7.2222-7.91216 0-.82773 1.0003-1.7285 3.0499-1.7285 2.318 0 4.2211.94946 4.2211.94946l.9272-4.23605c-.0244 0-2.0984-.876425-5.0019-.876425zm-41.576821.316485-.121998.63297s1.903169.34084 3.635529 1.04684c2.22036.80339 2.36676 1.26595 2.75715 2.70231l4.07474 15.65387h5.4655l8.369-20.03599h-5.4411l-5.3923 13.63329-2.1959-11.56396c-.1952-1.31463-1.22-2.06933-2.48878-2.06933zm26.375921 0-4.2699 20.03599h5.1971l4.2455-20.03599zm28.9378 0c-1.2443 0-1.9031.65732-2.3911 1.82588l-7.6127 18.21011h5.4411l1.0492-3.0431h6.6367l.6344 3.0431h4.8067l-4.1723-20.03599zm.7076 5.42896 1.6104 7.52263h-4.3187z" fill="#fff"/></g></svg>

<svg width="65" height="22" viewBox="0 0 65 22" fill="none" xmlns="http://www.w3.org/2000/svg">
<g id="visa_inc_logo.svg" clip-path="url(#clip0_959_6726)">
<path id="path3789" d="M42.3746 0.890625C37.8363 0.890625 33.7616 3.2521 33.7616 7.58553C33.7616 12.5763 40.9594 12.9171 40.9594 15.4003C40.9594 16.4471 39.7395 17.3966 37.6899 17.3966C34.7619 17.3966 32.566 16.082 32.566 16.082L31.6388 20.4641C31.6388 20.4641 34.152 21.584 37.5191 21.584C42.4966 21.584 46.4005 19.1251 46.4005 14.6943C46.4005 9.43575 39.1783 9.09492 39.1783 6.78214C39.1783 5.95441 40.1786 5.05364 42.2282 5.05364C44.5462 5.05364 46.4493 6.0031 46.4493 6.0031L47.3765 1.76705C47.3521 1.76705 45.2781 0.890625 42.3746 0.890625ZM0.797779 1.20711L0.675781 1.84008C0.675781 1.84008 2.57895 2.18092 4.31131 2.88692C6.53167 3.69031 6.67807 4.15287 7.06846 5.58923L11.1432 21.2431H16.6087L24.9777 1.20711H19.5366L14.1443 14.8404L11.9484 3.27644C11.7532 1.96181 10.7284 1.20711 9.45962 1.20711H0.797779ZM27.1737 1.20711L22.9038 21.2431H28.1009L32.3464 1.20711H27.1737ZM56.1115 1.20711C54.8672 1.20711 54.2084 1.86443 53.7204 3.03299L46.1077 21.2431H51.5488L52.598 18.2H59.2347L59.8691 21.2431H64.6758L60.5035 1.20711H56.1115ZM56.8191 6.63607L58.4295 14.1587H54.1108L56.8191 6.63607Z" fill="white"/>
</g>
<defs>
<clipPath id="clip0_959_6726">
<rect width="64" height="20.6933" fill="white" transform="translate(0.675781 0.890625)"/>
</clipPath>
</defs>
</svg>
